X:1
T:Hungarian Rhapsody
T:Hungarian Rhapsody
T:No. 6
T:Franz Liszt
C:Franz Liszt
%%score { ( 1 4 ) | ( 2 3 ) }
L:1/8
Q:1/4=78
M:2/4
K:Db
V:1 treble nm="鋼琴" snm="Pno."
V:4 treble 
V:2 bass 
V:3 bass 
V:1
"^Tempo giusto"!f! z4 | z4 | z4 | z4 | %4
!f! .[FAf] (!>![Fdf][I:staff +1]!>!.!^!D,)[I:staff -1] (!>![Fdf] | %5
[I:staff +1]!>!.!^!D,)[I:staff -1] [Fdf]/>[=Ec=e]/ !>![Fdf]2 | %6
 .[EAe] (!>![EAe][I:staff +1]!>!.!^!C,)[I:staff -1] (!>![Ece] | %7
[I:staff +1]!>!.!^!C,)[I:staff -1] .[Ece]/>.[=D=B=d]/ !>![Ece]2 | %8
 !>![DBd]>[CAc] .[B,=GB]/.[=A,^F=A]/!>![B,GB]- | %9
 [B,GB]!<(! .[E=GB]/.[Ac]/.[Bd]/.[ce]/.[df]/.[GB=g]/!<)! | %10
!ff! !arpeggio!.[Aca]/!p!z/4[Q:1/4=70]([ca]/4!^!A) .[df]/z/4([df]/4!^!=G) | %11
 (3(PA/"^"=G/B/) .A/.G/ A2[Q:1/4=75] |!ff![Q:1/4=78] .[faf'] !^![fd'f'].D !^![fd'f'] | %13
.D .[fd'f']/>.[=ec'=e']/ !>![fd'f']2 | %14
!ff! .[ege'] (!^![e_c'e'][I:staff +1].[E,G,_C])[I:staff -1] (!^![ec'e'] | %15
[I:staff +1].[E,G,_C])[I:staff -1] .[e_c'e']/>.[=db=d']/ !>![ec'e']2 | %16
 !>![dbd']>[_ca_c'] .[B=gb]/.[=A^f=a]/!>![Bgb]- | %17
 [Bgb]!<(!.[B=gb]/.[cac']/ .[dbd']/.[ec'e']/.[fd'f']/.[gb=g']/!<)! | %18
!ff! .[ac'a']/[Q:1/4=70]!p! z/4 (3a/8"_"[c'a']/8a/8"^ten."[I:staff +1]!^!A[I:staff -1] .[fd'f']/ z/4 (3((f/8"_"[d'f']/8f/8))"^ten."[I:staff +1]!^!=G | %19
[I:staff -1] (3(PA/"^"=G/B/) .A/.G/ A2[Q:1/4=75] |!f![Q:1/4=78] .[Bdb] (!^![Bgb].G,) .[Bgb] | %21
 ([dbd'][cac']/>[Bgb]/) [Bgb]2 | %22
 [=Af=a]2-"^poco rall. -       -       -       -       -       -       -       -       -       -"[Q:1/4=75] [Afa]/>[B=db]/[Q:1/4=72]!tenuto![Bdb]/>[Aca]/ | %23
[Q:1/4=67] !tenuto![=Ac=a]/>[=Gc=g]/[Q:1/4=62]!tenuto![Gcg]/>[Fcf]/[Q:1/4=55] !tenuto![Fcf]2 | %24
[Q:1/4=78]"^(a tempo)" !>![Geg]>[Fdf] [Ece]/>[=D=B=d]/[Ece]- | %25
 [Ece]!<(!.[Ece]/.[Fdf]/ .[Geg]/.[Afa]/.[Bgb]/.[cec']/!<)! | %26
!ff! !arpeggio![dfd']/!p![Q:1/4=70]z/4([fd']/4.!^!d) [gb]/z/4([gb]/4.!^!c) | %27
 (3(Pd/"_"c/e/) .d/.c/ [Fd]2[Q:1/4=75] |[Q:1/4=78]!ff! .[Bdb] (!^![Bgb].G,) .[Bgb] | %29
 ([dbd'][cac']/>[Bgb]/) [Bgb]2 | %30
 ([=Af=a]>[^G=e^g][Q:1/4=75] [Afa]/>[B=db]/[Q:1/4=72][cec']/>[Bdb]/ | %31
[Q:1/4=67] [=Ac=a]/>[B=db]/[Q:1/4=62][Aca]/>[=G=g]/)[Q:1/4=55] [Fcf]2 | %32
[Q:1/4=78] !>![Geg]>[Fdf] [Ece]/>[=D=B=d]/[Ece]- | %33
 [Ece]!<(!.[Ece]/.[Fdf]/ .[Geg]/.[Afa]/.[Bgb]/.[cec']/!<)! | %34
!ff! !arpeggio![dfd']/!p![Q:1/4=70]z/4([fd']/4.!^!d) [gb]/z/4([gb]/4.!^!c) | %35
!8va(!{/ad'f'} .d''/z/4[f'd'']/4(!>!d'{/gc'} .[g'b']/)z/4[g'b']/4(!>!c' | %36
{/d'a'} .[d''f'']/)z/4[d''f'']/4(!>!d'{/gc'} .[g'b']/)z/4[g'b']/4!>!c' | %37
 Td'{/c'e'}d'/z/4c'/4 Td'{/c'e'}d'/z/4c'/4 | Td'{/c'e'}d'/z/4c'/4 Td'{/c'e'}d'/z/4c'/4 | %39
[Q:1/4=30] !fermata!Td'2[Q:1/4=46][Q:1/4=80] (46:32:46(e'/4d'/4g'/4e'/4a'/4g'/4b'/4a'/4d''/4b'/4e''/4d''/4g''/4d''/4e''/4b'/4d''/4a'/4b'/4g'/4a'/4e'/4g'/4d'/4!8va)!e'/4b/4d'/4a/4b/4g/4a/4e/4g/4d/4e/4B/4d/4A/4B/4G/4A/4E/4G/4D/4E/4B,/4) | %40
 !stemless!D/4"_cresc."x/4x/xx2x2!ff![Q:1/4=48]x[I:staff +1]x/4x/4[Q:1/4=76][I:staff -1]D/4E/4F/4A/4[Q:1/4=68]d/4e/4f/4a/4[Q:1/4=56]d'/4e'/4!8va(!f'/4a'/4[Q:1/4=38]d''/4[Q:1/4=20]e''/4[Q:1/4=80] !arpeggio!.[d'a'f'']!8va)![Q:1/4=8] !fermata!z[Q:1/4=80] |: %41
[K:C#][M:2/4][K:bass]!p![Q:1/4=196]"^Presto" .[E,C]2 .[G,C].[CE] | .[DF]2 .[CE]2 | %43
 .[G,D].[G,B,] .[G,C]2 | z!f! (!^![E,C]2 .[E,C]) |[K:treble]!p! .[G,B,G]2 .[B,G].[DB] | %46
 .[Dc]2 .[DB]2 | .[DA].[D^^F] .[DG]2 | z!f! ([B,G]2 .[B,G]) |!p! .[CEc]2 .[CGc].[EGe] | %50
 .[FGf]2 .[EGe]2 | .[DGd].[B,GB] .[CGc]2 |!f! z (!^![CEc]2 .[CEc]) |!p! .[GBg]2 .[Gdg].[Bdb] | %54
 .[cdc']2 .[Bdb]2 | .[Ada].[^^Fd^^f] .[Gdg]2 | z!f! (!^![GBg]2 .[GBg]) | %57
!p! .[cac']2 .[cac'].[=Bg=b] | .[A^^fa]2 .[=Bg=b]2 | .[A^fa]2 .[Afa].[Geg] | .[Fdf]2 .[Ece]2 | %61
 .[DBd]2 .[DGd].[EGe] | .[FGe]2 .[EGe]2 | .[DGd].[B,GB] .[CGc]2 | z!f! (!^![cec']2 .[cec']) | %65
!p!!8va(! .[c'a'c'']2 .[c'a'c''].[=bg'=b'] | .[a^^f'a']2 .[=bg'=b']2 | %67
 .[a^f'a']2 .[af'a'].[ge'g'] | .[fd'f']2 .[ec'e']2!8va)! | .[dbd']2 .[dgd'].[ege'] | %70
 .[fge']2 .[ege']2 | .[dgd'].[Bgb] .[cgc']2 | %72
 z!f![Q:1/4=170]!8va(! (!^![c'e'c'']2"^" .[c'e'c''])!8va)! :| %73
[K:Db][M:4/4][K:bass][Q:1/4=60] !fermata!z4[Q:1/4=60]"^Andante" z2!mf!{/F,} (3(.F,"_".=G,.=A,) | %74
 (24:16:5!fermata!B,4-[Q:1/4=60] B,/B,/B,3/4C/4 (24:16:5!fermata!D4-[Q:1/4=60] D3/4B,/4B,3/4C/4[Q:1/4=40][Q:1/4=40] | %75
 C6 z2 | %76
{/E} (3(E"^"._A,.A,)!<(! (7:4:4A,2 E/E/F/!<)!!f! G2- (3(G"^"[Q:1/4=50]!fermata!F3/2[Q:1/4=60]E/) | %77
 F6[K:treble][Q:1/4=40] (3!fermata!z"^"[Q:1/4=60]!mf! (.=E.F) | %78
[Q:1/4=50]"^riten. a piacere" (6:4:3G2 F/ _E/ (6:4:10D2[Q:1/4=40] (4:2:3B,"^" B,/C/!<(! (1:1:6D2-[Q:1/4=20] D/C/E/D3/4C/4 C/>!<)!!f!F/[Q:1/4=5](7:2:5!fermata!F[K:bass]"^"[Q:1/4=30] F, F,/=G,/=A,/ | %79
[Q:1/4=60] (11:8:4B,4[Q:1/4=60] B,/B,/C/ D2- (3D"^"C3/2B,/[Q:1/4=40][Q:1/4=40] | %80
[Q:1/4=30] !fermata!B,4 !fermata!z2[K:treble]!mf!!<(!{/[Ff]} (3[Ff]"_"[=G=g][=A=a]!<)![Q:1/4=60] | %81
!f! [Bb]3"_sempre espress." (3[Bb]/"_"[Bb]/[cc']/ [dd']2- [dd']/>[Bb]/[Bb]/>[cc']/ | [cc']6 z2 | %83
{/[ee']} (3[ee']"_"!<(![Aa][Aa]!<)! (7:4:4[Aa]2 [ee']/[ee']/[ff']/ [gg']7/2[Q:1/4=30]{/[gg']} (3[gg']/4"_"[ff']/4[ee']/4 | %84
[Q:1/4=60] [ff']6[Q:1/4=30] !fermata!z[Q:1/4=60]!f! (.=e/.f/){xxx} | %85
[Q:1/4=40]{/fga} (20:8:13Tg2 f/4g/4=a/4c'/4e'/4_a'/4g'/4e'/4c'/4=a/4g/4e/4[Q:1/4=35] !fermata!d-(3d/"_"(.B/.c/){cde}[Q:1/4=30] (27:8:20!fermata!Td2 c/4d/4=e/4=g/4b/4d'/4!8va(!=e'/4=g'/4b'/4_e''/4d''/4b'/4g'/4e'/4d'/4!8va)!b/4g/4e/4d/4[Q:1/4=40] (7:4:7(B/4c/4B/4=A/4B/4_c/4=c/4)[Q:1/4=30](5:4:5(._e/8.=d/8._d/8.c/8._c/8[Q:1/4=40](3:1:3.B/.A/.B/) | %86
 c/>f/ !fermata!f3 z2 z[Q:1/4=60]{/F} (3(.F/"^".=G/.=A/) | %87
 B3 (3(B/"^"B3/4c/4) d2- (3(d"^"c3/2B/) |[Q:1/4=50] B4[Q:1/4=40] !fermata!z4 | %89
 z{/[G,B,D]} [G,B,D] z{/[A,DF]} [A,DF] z"^rall.  -     -     -     -     -     -     -     -     -"!p!!<(!{/[B,=E=G]} [B,EG] z2!<)![Q:1/4=20][Q:1/4=30] | %90
!mf! z[Q:1/4=40]{/[=A,CF=A]} [A,CFA]- [A,CFA]4 !fermata!z[K:bass][Q:1/4=60]{/F,} (3(.F,/"_".=G,/.=A,/) | %91
 B,3!<(! (3(.B,/"_".B,/C/)!<)!!f!!>(! D3-!>)!!mf! (3(D/"_"C3/4B,/4) | %92
 D4- (6:4:6D/C/[Q:1/4=50]_A,/[Q:1/4=60]=A,/C/E/[K:treble]"^poco a poco accel."[Q:1/4=64](6:4:6_A/G/=D/[Q:1/4=68]E/G/=A/[Q:1/4=76](6:4:6_d/c/_A/[Q:1/4=84]=A/c/e/[Q:1/4=96](6:4:6_a/g/=d/[Q:1/4=108]e/g/=a/[Q:1/4=124]!<(!(6:4:6_d'/c'/_a/[Q:1/4=128]=a/c'/e'/!8va(!(6:4:6a'/g'/=d'/e'/g'/=a'/(6:4:6_d''/c''/_a'/=a'/c''/e''/!<)!"^veloce" (6:4:6g''/c''/e''/_c''/g''/b'/(6:4:6e''/a'/g''/b'/e''/=b'/[Q:1/4=40] | %93
 (6:4:6g''/c''/e''/_c''/g''/b'/(6:4:6e''/=a'/g''/b'/e''/=b'/ (6:4:6g''/=c''/e''/b'/g''/_b'/(6:4:6e''/=a'/c''/_a'/e''/=g'/(6:4:6c''/_g'/=a'/f'/c''/=e'/(6:4:6a'/_e'/g'/=d'/a'/_d'/(6:4:6g'/c'/e'/_c'/g'/b/!8va)!(6:4:6e'/=a/=c'/_a/e'/=g/"_dimin."(6:4:6c'/_g/=a/f/c'/=e/(6:4:6a/_e/g/=d/a/_d/ | %94
 (6:4:6g/c/e/_c/g/B/(6:4:6e/=A/=c/_A/e/=G/[Q:1/4=124] (6:4:6c/_G/=A/[Q:1/4=108]F/c/=E/(6:4:6A/G/c/F/A/E/!mf!"_smorz." (6:4:6c/G/A/F/c/E/(6:4:6A/G/c/F/A/E/ (6:4:6c/G/A/F/c/E/(6:4:6A/G/c/F/A/E/ || %95
[K:Bb][M:2/4][Q:1/4=78]"^Allegro"!pp! .F (!>!F2 .F) | %96
 z"^poco rit.  -     -     -     -     -     -     -     -" (!>!F2 .F) | z (!>!F2 .F) | %98
!p![Q:1/4=112] .F/.G/.A/.B/ .c/.B/.A/.B/ | .c (!>!c2 .c-) | c/.d/.d/.e/ .e/.d/.d/.c/ | %101
 .d (!>!d2 .d) | .e/.d/.c/.B/ .A/.G/.A/.B/ | .c (!>!c2 .c-) | .c/.F/.F/.f/ .f/.c/.c/.d/ | %105
 .B (!>!B2 .B) | %106
"_sempre dolce leggieramente e stacc." .[Ff]/.[Gg]/.[Aa]/.[Bb]/ .[cc']/.[Bb]/.[Aa]/.[Bb]/ | %107
 .[cc']"^ten." !>![cc']2 [cc']- | [cc']/.[dd']/.[dd']/.[ee']/ .[ee']/.[dd']/.[dd']/.[cc']/ | %109
 .[dd']"^ten." !>![dd']2 [dd'] | .[ee']/.[dd']/.[cc']/.[Bb]/ .[Aa]/.[Gg]/.[Aa]/.[Bb]/ | %111
 .[cc']"^ten." !>![cc']2 [cc']- | .[cc']/.[Ff]/.[Ff]/.[ff']/ .[ff']/.[cc']/.[cc']/.[dd']/ | %113
 .[Bb]"^ten." !>![Bb]2 .[Ff]/.[Gg]/ | %114
"_più dolce" .[Aa]/.[Bb]/.[^c^c']/.[dd']/ .[_e_e']/.[dd']/.[cc']/.[dd']/ | %115
 .[=e=e']"^ten." !>![ee']2 [ee']- | [=e=e']/.[^f^f']/.[ff']/.[gg']/ .[gg']/.[ff']/.[ff']/.[ee']/ | %117
 .[^f^f'] !>![ff']2 [ff'] | .[gg']/.[^f^f']/.[=e=e']/.[dd']/ .[^c^c']/.[=B=b]/.[cc']/.[dd']/ | %119
 .[=e=e'] !>![ee']2 [ee']- | .[ee']/.[Aa]/.[Aa]/.[aa']/ .[aa']/.[=e=e']/.[ee']/.[^f^f']/ | %121
 .[dd'] !>![dd']2 [dd']- |"^poco calando"!mf!!>(! [dd'] [dd']2 [dd']-!>)! | %123
!p! [dd'] !>![dd']2!mf!!>(! [dd']- | [dd'] !>![dd']2!>)!!p! [dd']- | %125
 [dd'] !>![dd']2!mf!!>(! [dd']- | %126
"^riten.  -     -     -     -     -"[Q:1/4=110] [dd'] [dd']2!>)!!p! [dd']- | %127
"^-     -     -     -     -     -     -"!mf![Q:1/4=106]!>(! [dd'] [dd']2!>)!!p! [dd']- | %128
!mf![Q:1/4=98]!>(! [dd']"_smorz." [dd']2[Q:1/4=80] !^![dd']!>)! | %129
!p![Q:1/4=116]"^poco a poco più animato" .[Ff]/.[Gg]/.[Aa]/.[Bb]/ .[cc']/.[Bb]/.[Aa]/.[Bb]/ | %130
 [cc']/[cc']/[cc']/[cc']/ [cc']/[cc']/[cc']/[cc']/ | %131
 .[cc']/.[dd']/.[dd']/.[ee']/ .[ee']/.[dd']/.[dd']/.[cc']/ | %132
 [dd']/[dd']/[dd']/[dd']/ [dd']/[dd']/[dd']/[dd']/ | %133
 .[ee']/.[dd']/.[cc']/.[Bb]/ .[Aa]/.[Gg]/.[Aa]/.[Bb]/ | %134
 [cc']/[cc']/[cc']/[cc']/ [cc']/[cc']/[cc']/[cc']/ | %135
 .[cc']/.[Ff]/.[Ff]/.[ff']/ .[ff']/.[cc']/.[cc']/.[dd']/ | %136
 [Bb]/[Bb]/[Bb]/[Bb]/ [Bb]/[Bb]/[Bb]/[Bb]/ | .[Ff]/.[Gg]/.[Aa]/.[Bb]/ .[cc']/.[Bb]/.[Aa]/.[Bb]/ | %138
!<(! [cc']/[cc']/[cc']/[cc']/ [cc']/[cc']/[cc']/[cc']/!<)! | %139
!mf! .[cc']/.[dd']/.[dd']/.[ee']/ .[ee']/.[dd']/.[dd']/.[cc']/ | %140
!p!!<(! [dd']/[dd']/[dd']/[dd']/ [dd']/[dd']/[dd']/[dd']/!<)! | %141
!mf! .[ee']/.[dd']/.[cc']/.[Bb]/ .[Aa]/.[Gg]/.[Aa]/.[Bb]/ | %142
!p!!<(! [cc']/[cc']/[cc']/[cc']/ [cc']/[cc']/[cc']/[cc']/!<)! | %143
!mf! [cc']/[Ff]/[Ff]/[ff']/ [ff']/[cc']/[cc']/[dd']/ | [Bb]/[Bb]/[Bb]/[Bb]/[Bb]/[Bb]/ [Ff]/[Gg]/ | %145
!p! [Aa]/[Bb]/[^c^c']/[dd']/ [_ee']/[dd']/[cc']/[dd']/ | %146
 [=e=e']/[ee']/[ee']/[ee']/ [ee']/[ee']/[ee']/[ee']/ | %147
 [=e=e']/[^f^f']/[ff']/[gg']/ [gg']/[ff']/[ff']/[ee']/ | %148
 [^f^f']/[ff']/[ff']/[ff']/ [ff']/[ff']/[ff']/[ff']/ | %149
 [gg']/[^f^f']/[=e=e']/[dd']/ [^c^c']/[_Bb]/[cc']/[dd']/ | %150
 [=e=e']/[ee']/[ee']/[ee']/ [ee']/[ee']/[ee']/[ee']/ | %151
 [=e=e']/[Aa]/[Aa]/[aa']/ [aa']/[ee']/[ee']/[^f^f']/ | %152
"_dolciss." [dd']/[dd']/[dd']/[dd']/ [dd']/[dd']/[dd']/[dd']/ | %153
 [dd']/[dd']/[dd']/[dd']/ [dd']/[dd']/[dd']/[dd']/ | %154
 [dd']/[dd']/[dd']/[dd']/ [dd']/[ee']/[=e=e']/[ff']/ | %155
!<(!!8va(! [^f^f']/[gg']/[^g^g']/[aa']/ [bb']/[=b=b']/[c'c'']/[^c'^c'']/!<)! | %156
!f! [d'd'']/[d'd'']/[d'd'']/[d'd'']/ [d'd'']/[d'd'']/[d'd'']/[d'd'']/ | %157
 [d'd'']/[d'd'']/[d'd'']/[d'd'']/!mf!!<(! [d'd'']/[e'e'']/[=e'=e'']/[f'f'']/!<)! | %158
!f!"_cresc." [^f'^f'']/[=f'=f'']/[=e'=e'']/[_e'_e'']/!mf!!<(! [d'd'']/[e'e'']/[=e'=e'']/[f'f'']/!<)! | %159
 [^f'^f'']/[=f'=f'']/[=e'=e'']/[_e'_e'']/ [d'd'']/[^c'^c'']/[=c'=c'']/[=b=b']/ | %160
 [_bb']/[aa']/[^g^g']/[=g=g']/ [^f^f']/[=f=f']/[=e=e']/[_e_e']/!8va)! | %161
 [dd']/[^c^c']/[=c=c']/[=B=b]/ [_B_b]/[Aa]/[^G^g]/[=G=g]/ | %162
!f! x/"^più cresc." [=Ff]/[=E=e]/[_E_e]/ x/ [Ee]/[=E=e]/[Ff]/ | %163
!f! x/ [=Ff]/[=E=e]/[_E_e]/ x/ [Ee]/[=E=e]/[Ff]/ | %164
[I:staff +1]x/[I:staff -1][=F=f]/[I:staff +1]x/[I:staff -1][F=f]/[I:staff +1]x/[I:staff -1][=Ff]/[I:staff +1]x/[I:staff -1][F=f]/ | %165
[I:staff +1]x/[I:staff -1][=F=f]/[I:staff +1]x/[I:staff -1][F=f]/[I:staff +1]x/[I:staff -1][=Ff]/[I:staff +1]x/[I:staff -1][F=f]/ | %166
[I:staff +1]x/[I:staff -1][=F=f]/[I:staff +1]x/[I:staff -1][F=f]/[I:staff +1]x/[I:staff -1][=Ff]/[I:staff +1]x/[I:staff -1][F=f]/ | %167
!f! [FBdf]/[Gg]/[Aa]/[Bb]/ [cc']/[Bb]/[Aa]/[Bb]/ | %168
 [cc']/[cc']/[cc']/[cc']/ [cc']/[cc']/[cc']/[cc']/ | %169
 [cc']/[dd']/[dd']/[ee']/ [ee']/[dd']/[dd']/[cc']/ | %170
 [dd']/[dd']/[dd']/[dd']/ [dd']/[dd']/[dd']/[dd']/ | [ee']/[dd']/[cc']/[Bb]/ [Aa]/[Gg]/[Aa]/[Bb]/ | %172
 [cc']/[cc']/[cc']/[cc']/ [cc']/[cc']/[cc']/[cc']/ | [cc']/f/f/[ff']/ [ff']/[cc']/[cc']/[dd']/ | %174
 [Bb]/[Bb]/[Bb]/[Bb]/[Bb]/[Bb]/ .[Bb] | %175
!8va(! [fbd'f']/[gg']/[aa']/[bb']/ [c'c'']/[bb']/[aa']/[bb']/ | %176
!<(! [c'c'']/[c'c'']/[c'c'']/[c'c'']/ [c'c'']/[c'c'']/[c'c'']/[c'c'']/!<)! | %177
!ff! [c'c'']/[d'd'']/[d'd'']/[e'e'']/ [e'e'']/[d'd'']/[d'd'']/[c'c'']/ | %178
!f!!<(! [d'd'']/[d'd'']/[d'd'']/[d'd'']/ [d'd'']/[d'd'']/[d'd'']/[d'd'']/!<)! | %179
!ff! [e'e'']/[d'd'']/[c'c'']/[bb']/ [aa']/[gg']/[aa']/[bb']/ | %180
!f!!<(! [c'c'']/[c'c'']/[c'c'']/[c'c'']/ [c'c'']/[c'c'']/[c'c'']/[c'c'']/!<)! | %181
!ff! [c'c'']/f'/f'/[f'f'']/ [f'f'']/[c'c'']/[c'c'']/[d'd'']/ | %182
 [bb']/[bb']/[bb']/[bb']/ [bb']!8va)!!mf! z | %183
 z"^leggiero" (3([^f'a']/"^"d'/a/(3[^fa]/"^"d/A/(3[^FA]/"^"D/A,/) | %184
 z (3([g'a']/^c'/a/(3[ga]/^c/A/(3[GA]/^C/A,/) | z (3([=e'a']/^c'/a/(3[=ea]/^c/A/(3[=EA]/^C/A,/) | %186
 z (3([^f'a']/d'/a/(3[^fa]/d/A/(3[^FA]/D/A,/) | z (3([^f'a']/d'/a/(3[^fa]/d/A/(3[^FA]/D/A,/) | %188
 z (3([g'a']/^c'/a/(3[ga]/^c/A/(3[GA]/^C/A,/) | z (3([=e'a']/^c'/a/(3[=ea]/^c/A/(3[=EA]/^C/A,/) | %190
"_cresc." z (3(D/^F/[Ad]/(3d/^f/[ad']/!8va(!(3d'/^f'/a'/) | %191
 (3!^![=b'd'']/^f'/d'/(3[=bd']/^f/d/!8va)! (3[_bd']/=f/d/(3[Bd]/F/D/ | %192
 z!mf!!<(! (3(D/^F/[Ad]/(3d/^f/[ad']/!8va(!(3d'/^f'/a'/)!<)! | %193
 (3!^![=b'd'']/^f'/d'/(3[=bd']/^f/d/!8va)! (3[_bd']/=f/d/(3[Bd]/F/D/ | %194
 z!mf!!<(! (3(D/^F/[Ad]/(3d/^f/[ad']/!8va(!(3d'/^f'/a'/)!<)! | %195
 .!^![d'd'']!8va)! .[^F^f] .!^![d'd''] .[=F=f] | .!^![d'd''] .[^F^f] .!^![d'd''] .[=F=f] | %197
 .!^![d'd''] .[^F^f] .!^![d'd''] .[=F=f] | %198
!f![Q:1/4=120]"^Presto" [FBdf]/[Gg]/[Aa]/[Bb]/ [cc']/[Bb]/[Aa]/[Bb]/ | %199
 [cc']/[cc']/[cc']/[cc']/ [cc']/[cc']/[cc']/[cc']/ | %200
 [cc']/[dd']/[dd']/[ee']/ [ee']/[dd']/[dd']/[cc']/ | %201
 [dd']/[dd']/[dd']/[dd']/ [dd']/[dd']/[dd']/[dd']/ | [ee']/[dd']/[cc']/[Bb]/ [Aa]/[Gg]/[Aa]/[Bb]/ | %203
 [cc']/[cc']/[cc']/[cc']/ [cc']/[cc']/[cc']/[cc']/ | [cc']/f/f/[ff']/ [ff']/[cc']/[cc']/[dd']/ | %205
 [Bb]/[Bb]/[Bb]/[Bb]/[Bb]/[Bb]/ [Bb] |!ff! [Ff]/[Gg]/[Aa]/[Bb]/ [cc']/[Bb]/[Aa]/[Bb]/ | %207
 .[cc'] (!>![c=ec']2 .[cec']) | !^![c_ec']/[dd']/[dd']/[ee']/ [ee']/[dd']/[dd']/[cc']/ | %209
 .[dd'] (!>![d^fad']2 .[dgbd']) | !^![ee']/[dd']/[cc']/[Bb]/ [Aa]/[Gg]/[Aa]/[Bb]/ | %211
 .[cc'] (!>![c=ec']2 .[cec']) | %212
[Q:1/4=80]!<(! !^![A_ea]/[Q:1/4=100][Bb]/[Q:1/4=120][=B=b]/[cc']/[^c^c']/[dd']/[ee']/[=e=e']/ | %213
!8va(![ff']/[^f^f']/[gg']/[^g^g']/[aa']/[bb']/[=b=b']/[c'c'']/ | %214
 [^c'^c'']/[d'd'']/[e'e'']/[=e'=e'']/!<)! [f'=c''_e''f'']/[f'c''e''f'']/[f'c''e''f'']/[f'c''e''f'']/ | %215
 [f'c''e''f'']/[f'c''e''f'']/[f'c''e''f'']/[f'c''e''f'']/ [f'c''e''f'']/[f'c''e''f'']/[f'c''e''f'']/[f'c''e''f'']/ | %216
!fff! [f'd''f''][_g'b'_g''][f'd''f''][=g'b'=g''] | [f'd''f''][_g'b'_g''][f'd''f''][=g'b'=g''] | %218
!fff! [f'd''f''][_g'b'_g''][f'd''f''][=g'b'=g''] | [f'd''f''][_g'b'_g''][f'd''f''][=g'b'=g''] | %220
 [f'd''f''] z!f![Q:1/4=160] [fac'f']!8va)! z | [FBdf] z [F,A,CF] z | %222
[Q:1/4=140] [F,B,DF] z z3/2 [dfbd']/ |[dfbd'] z[Q:1/4=80] z3/2[K:bass] [D,F,B,]/ |[D,F,B,] z z2 |] %225
V:2
 !arpeggio!.[D,,A,,D,]!ped! (!>![A,,D,].D,,) (!>![A,,D,] |.D,,) (!>![A,,D,].D,,) .[A,,D,]!ped-up! | %2
 !arpeggio!.[D,,A,,D,A,]!ped! (!>![A,,D,A,].D,,) (!>![A,,D,A,] | %3
.D,,) (!>![A,,D,A,].D,,) .[A,,D,A,]!ped-up! |!ped! .[D,A,D] (!>![F,A,D]!>!.!^!D,,) (!>![F,A,D] | %5
!>!.!^!D,,) D/>C/ !>!D2!ped-up! |!ped! .[C,A,C] (!>![E,A,C]!>!.!^!C,,) (!>![E,A,C] | %7
!>!.!^!C,,) .C/>.=B,/ !>!C2!ped-up! |!ped! !>!B,>A, .=G,/.^F,/!>!G, | E,,!ped-up!E, z E, | %10
 A,, [CE] E,, [E,B,D] | ([A,C][E,B,].[A,,E,A,]) !>!.!^!A,,, | %12
!ped! .[D,A,F] (!^![A,DF].[D,,A,,D,]) (!^![A,DF] |.[D,,A,,D,]) .[DF]/>.[C=E]/ !>![DF]2!ped-up! | %14
!ped! !arpeggio!.[_C,G,E] (!^![G,_CE].[_C,,G,,C,]) (!^![G,CE] | %15
.[_C,,G,,_C,]) .[CE]/>.[B,=D]/ !>![CE]2!ped-up! | %16
!ped! !arpeggio!!>![=G,D]>[A,_C] .[E,B,]/.[^F,=A,]/!>![G,B,] | .E,,!ped-up!E, z E, | %18
 A,, [CE] E,, [B,D] | ([A,C][E,B,].[A,,E,A,]) !>!.!^![A,,,A,,] | %20
!ped! !>!.!^![_G,,,_G,,] ([D,G,B,].G,,) .[D,G,B,]!ped-up! | %21
!ped! !arpeggio![B,,D]!arpeggio![A,,C,C]!<(! !arpeggio![G,,B,]2!ped-up!!<)! | %22
!ped! !arpeggio![F,,C,F,=A,][CF=A] !arpeggio![F,,C,A,][B,,F,=D] | %23
 [C,F,=A,C][C,=E,B,C] [F,A,C] .[F,,,F,,]/.[_G,,,_G,,]/ | %24
 .[A,,,A,,].[A,,,C,,A,,]/.[B,,,D,,B,,]/ .[C,,E,,C,].[C,,E,,C,]/.[D,,F,,D,]/!ped-up! | %25
 .[E,,G,,E,] .[C,E,]/.[D,F,]/ .[E,G,]/.[F,A,]/.[G,B,]/.[E,C]/ | D,([DF] A,,)([A,EG] | %27
 [DF])[A,E][D,A,D] !>!.!^!D,, |!ped! .[G,,D,B,] ([D,G,B,].[G,,,G,,]) .[D,G,B,]!ped-up! | %29
!ped! !arpeggio![B,,D]!arpeggio![A,,C,C]!<(! !arpeggio![G,,B,]2!ped-up!!<)! | %30
!ped! !arpeggio![F,,C,F,=A,][CF=A] !arpeggio![F,,C,A,][B,,F,=D] | %31
 [C,F,=A,C][C,=E,B,C] [F,A,C] .[F,,,F,,]/.[_G,,,_G,,]/ | %32
 .[A,,,A,,].[A,,,C,,A,,]/.[B,,,D,,B,,]/ .[C,,E,,C,].[C,,E,,C,]/.[D,,F,,D,]/!ped-up! | %33
 .[E,,G,,E,] .[C,E,]/.[D,F,]/ .[E,G,]/.[F,A,]/.[G,B,]/.[E,C]/ | .D,.[DF] .A,,.[A,EG] | %35
[K:treble] D[fa] A,[eg] | !arpeggio![DAdf][fa] !arpeggio![A,EGc][Aeg] | [df][=A=e=a] [df_a][Bfb] | %38
 [df][=A=e=a] [df_a][Bfb] |!ped! !arpeggio!!fermata![GBdgb]2 !fermata!z8 | %40
[K:bass][I:staff -1](x/4[I:staff +1]A,/4B,/4G,/4A,/4E,/4G,/4D,/4E,/4B,,/4D,/4A,,/4B,,/4G,,/4A,,/4E,,/4G,,/4D,,/4E,,/4B,,,/4D,,/4A,,,/4B,,,/4G,,,/4)!ped-up!!ped! !^![D,,,D,,]/A,,/4D,/4 !stemless!F,/4 !stemless!A,/4 x/ x2 x !arpeggio!.[D,A,DF] !fermata!z!ped-up! |: %41
[K:C#][M:2/4] .[C,G,]2 .E,.[C,G,] | .[B,,G,]2 .[C,G,]2 | .[G,,F,].[G,,D,] .[C,E,]2 | %44
 .!^!C,, (!^![C,G,]2 .[C,G,]) | .[G,,D,]2 .[D,G,].[G,B,] | .[^^F,A,]2 .[G,B,]2 | %47
 .[D,C].[D,A,] .[G,B,]2 | .!^!G,, (!^![G,D]2 .[G,D]) | .[C,G,]2 .[E,G,].[C,C] | .[B,,D]2 .[C,C]2 | %51
 .[G,,F,G,].[G,,D,G,] .[C,E,G,]2 | .!^!C,, (!^![E,G,]2 .[C,G,]) | .[G,,D,G,]2 .[B,D].[G,G] | %54
 .[^^F,A]2 .[G,G]2 | .[D,CD].[D,A,D] .[G,B,D]2 | .!^!G,, (!^![B,D]2 .[G,B,D]) | %57
 .[A,,C]2 .[A,,C].[G,,=B,] | .[^^F,,A,]2 .[G,,=B,]2 | .[^F,,A,]2 .[F,,A,].[E,,G,] | %60
 .[D,,F,]2 .[C,,E,]2 | .[G,,G,]2 .[B,,G,B,].[C,G,C] | .[D,G,D]2 .[C,G,C]2 | %63
 .[G,,F,G,].[G,,D,G,] .[C,E,G,]2 | .!^!C,, (!^![E,G,C]2 .[C,G,C]) | %65
[K:treble] .[A,c]2 .[A,c].[G,=B] | .[^^F,A]2 .[G,=B]2 |[K:bass] .[F,A]2 .[F,A].[E,G] | %68
 .[D,F]2 .[C,E]2 |[K:treble] .[G,G]2 .[B,GB].[CGc] | .[DGd]2 .[CGc]2 | .[G,FG].[G,DG] .[CEG]2 | %72
[K:bass] .!^!C,[K:treble] (!^![EGc]2"^" .[CGc]) :| %73
[K:Db][M:4/4][K:bass] !fermata!z4 z2"_una corda" z2 | %74
!ped! B,,,{/!fermata![F,DF]} !fermata![F,DF]2 z!ped-up!!ped! B,,,[K:treble]{/!fermata![B,FB]} !fermata![B,FB]2 z!ped-up! | %75
[K:bass]!ped! F,,[K:treble]{/[=A,F=A]} [A,FA]4- [A,FA] z2!ped-up! | %76
[K:bass]!ped! _A,, z[K:treble]{/[CEGA]} [CEGA]2!ped-up![K:bass]!ped! A,, z[K:treble]{/[EAc]} [EAc] !fermata!z!ped-up! | %77
[K:bass]!ped! D,,[K:treble]{/[DAd]} [DAd]4- [DAd] !fermata!z2!ped-up! | %78
[K:bass] ([E,=A,C]2 [B,,=E,=G,]2) ([B,,E,]2 !fermata![=A,,F,]2) | %79
 D,,{/!fermata![F,DF]} !fermata![F,DF]2 z F,,[K:treble]{/!fermata![EG=A]} !fermata![EGA] z2 | %80
[K:bass] B,,[K:treble]!p!{/!fermata![=DFB]} !fermata![DFB]3 !fermata!z2"_(tre corde)" z2 | %81
[K:bass] [B,,,B,,]{/[F,_DF]} [F,DF]2 z [B,,,B,,]{/[F,B,DF]} [F,B,DF]2 z | %82
 [F,,,F,,][K:treble]{/[=A,CF=A]} [A,CFA]4- [A,CFA] z2 | %83
[K:bass] (3[_A,,,_A,,][K:treble]"_" (.[A,CG].[B,DG]) G2[K:bass] (3[A,,,A,,][K:treble]"_"!f!!<(! (.[A,CGA].[_B,_DGA])!<)! [GA]2 | %84
[K:bass] [D,,D,][K:treble]{/[A,DFA]} !^![A,DFA]4- [A,DFA] !fermata!z2 | %85
 !fermata![=Ace]2 !fermata![=E=GB]2 !fermata![B,EG]2 [DE]2 |[K:bass] [F,=A,]4 z4 | %87
 z{/[D,B,]} [D,B,] z2 z{/[F,,=A,]} [F,,A,] z2 | %88
 z{/[B,,F,]} [B,,F,][K:treble]!p!{/!fermata![=dfb]} !fermata![dfb]4 z7/4[K:bass] F,,/4 | %89
"_marcato" (G,,3/2F,,/4E,,/4 D,,3/2)(3(B,,,/4"^"B,,,/4C,,/4) D,,-D,,/C,,/(3(E,,/"^"D,,3/4C,,/4) C,,/>F,,/ | %90
 F,,6 !fermata!z2 | D,,[K:treble]{/[DFB]} [DFB]2 z[K:bass] =E,,[K:treble]{/[B,GB]} [B,GB]2 z | %92
[K:bass] F,,{/!fermata![=A,EG]} !fermata![A,EG]2 x!ped! x4 x4 x2 x8!ped-up!!ped! | x16 x4 | %94
 x16!ped-up!!ped!!ped-up! ||[K:Bb][M:2/4] z4 | z4 | z4 | .B,,.[B,D].F,.[B,D] | %99
 .B,,.[A,E].F,.[A,E] | .B,,.[A,E].F,.[A,E] | .B,,.[B,D].F,.[B,D] | .B,,.[B,D].F,.[B,D] | %103
 .B,,.[A,E].F,.[A,E] | .B,,.[A,E].F,.[A,E] | .B,,.[B,D].F,.[B,D] | .B,,.[B,D].F,.[B,D] | %107
 .B,, .A,.F,.A, | .B,,.[A,E].F,.[A,E] | .B,, .B,.F,.B, | .B,,.[B,D].F,.[B,D] | .B,, .A,.F,.A, | %112
 .B,,.[A,E].F,.[A,E] | .B,, .B,.F,.B, | .A,, .[A,D].^F,.[A,D] | .A,, .[B,D].G,.[B,D] | %116
 .A,, .[A,^C=E].G,.[A,CE] | .A,, .[A,D].^F,.A, | .A,, .[D^F].A,.[DF] | .A,, .[B,D].G,.[B,D] | %120
 .A,, .[A,^C=E].G,.[A,CE] |(x[A,D]^F,[A,D]) | =B,,[=B,D]_B,,[_B,D] |(x[A,D]^F,[A,D]) | %124
 =B,,[=B,D]_B,,[_B,D] |(x[A,D]^F,[A,D]) | =B,,[=B,D]_B,,[_B,D] |(x[A,D]^F,[A,D]) | %128
 =B,,[=B,D]_B,,[_B,D] |"_(sempre stacc.)"!ped! .B,,.[B,D].F,.[B,D]!ped-up! | %130
!ped! .B,,.[A,E].F,.[A,E]!ped-up! |!ped! .B,,.[A,E].F,.[A,E]!ped-up! | %132
!ped! .B,,.[B,D].F,.[B,D]!ped-up! |!ped! .B,,.[B,D].F,.[B,D]!ped-up! | %134
!ped! .B,,.[A,E].F,.[A,E]!ped-up! |!ped! .B,,.[A,E].F,.[A,E]!ped-up! | %136
!ped! .B,,.[B,D].F,.[B,D]!ped-up! |!ped! .B,,.[B,D].F,.[B,D]!ped-up! | %138
!ped! .B,, .A,.F,.A,!ped-up! |!ped! .B,,.[A,E].F,.[A,E]!ped-up! |!ped! .B,, .B,.F,.B,!ped-up! | %141
!ped! .B,,.[B,D].F,.[B,D]!ped-up! |!ped! .B,, .A,.F,.A,!ped-up! | %143
!ped! .B,,.[A,E].F,.[A,E]!ped-up! |!ped! .B,, .B,.F,.B,!ped-up! | %145
!ped! .A,,.[A,D].^F,.[A,D]!ped-up! |!ped! .A,, (!>![G,B,D=E]2 .[G,B,DE])!ped-up! | %147
!ped! .A,,.[^C=E].G,.[CE]!ped-up! |!ped! .A,, (!>![A,D^F]2 .[A,DF])!ped-up! | %149
!ped! .A,,.[D^F].A,.[DF]!ped-up! |!ped! .A,, (!>![G,B,D=E]2 .[G,B,DE])!ped-up! | %151
!ped! .A,,.[^C=E].G,.[CE]!ped-up! | (D,[A,D]^F,[A,D]) |!>(! =B,,[=B,D]_B,,[_B,D]!>)! | %154
!p! (D,[A,D]^F,[A,D]) |!mf!!>(! =B,,[=B,D]_B,,[_B,D]!>)! |!p! (D,[A,D]^F,[A,D]) | %157
!mf!!>(! =B,,[=B,D] _B,,!>)!!p![_B,D] |!mf!!>(! =B,,[=B,D] _B,,!>)!!p![_B,D] | %159
!mf!!>(! =B,,[=B,D] _B,,!>)!!p![_B,D] |!mf!!>(! =B,,[=B,D] _B,,!>)!!p![_B,D] | z4 | %162
!ped! .^F/ x/ x!ped-up!!ped! .D/ x/ x!ped-up! |!ped! .^F/ x/ x!ped-up!!ped! .D/ x/ x!ped-up! | %164
!ped! !^!!stemless!^F/ x/[K:treble] !^!!stemless!^f/ x/ !^!!stemless!^F/ x/ !^!!stemless!f/ x/!ped-up! | %165
!ped! !^!!stemless!^F/ x/ !^!!stemless!^f/ x/ !^!!stemless!^F/ x/ !^!!stemless!f/ x/!ped-up! | %166
!ped! !^!!stemless!^F/ x/ !^!!stemless!^f/ x/ !^!!stemless!^F/ x/ !^!!stemless!f/ x/!ped-up! | %167
[K:bass]!ped! .!^![B,,,B,,] .[B,DF].F,.[B,DF]!ped-up! | %168
!ped! .!^![B,,,B,,] .[A,EF].F,.[A,EF]!ped-up! |!ped! .!^![B,,,B,,] .[A,EF].F,.[A,EF]!ped-up! | %170
!ped! .!^![B,,,B,,] .[B,DF].F,.[B,DF]!ped-up! |!ped! .!^![B,,,B,,] .[B,DF].F,.[B,DF]!ped-up! | %172
!ped! .!^![B,,,B,,] .[A,EF].F,.[A,EF]!ped-up! |!ped! .!^![B,,,B,,] .[A,EF].F,.[A,EF]!ped-up! | %174
!ped! .!^![B,,,B,,] .[B,DF].F,.[B,DF]!ped-up! |!ped! .!^![B,,,B,,] .[B,DF].F,.[B,DF]!ped-up! | %176
!ped! .!^![B,,,B,,] !>!.[A,E].F,.[A,E]!ped-up! |!ped! .!^![B,,,B,,] .[A,EF].F,.[A,EF]!ped-up! | %178
!ped! .!^![B,,,B,,] !>!.[B,D].F,.[B,D]!ped-up! |!ped! .!^![B,,,B,,] .[B,DF].F,.[B,DF]!ped-up! | %180
!ped! .!^![B,,,B,,] !>!.[A,E].F,.[A,E]!ped-up! |!ped! .!^![B,,,B,,] .[A,EF].F,.[A,EF]!ped-up! | %182
!ped! .!^![B,,,B,,] !>![F,B,DF]2!mf! [F,,,F,,]/[G,,,G,,]/!ped-up! | %183
!ped! [A,,,A,,]/[B,,,B,,]/[^C,,^C,]/[D,,D,]/ [E,,E,]/[D,,D,]/[C,,C,]/[D,,D,]/!ped-up! | %184
!ped! [=E,,=E,]/[E,,E,]/[E,,E,]/[E,,E,]/ [E,,E,]/[E,,E,]/[E,,E,]/[E,,E,]/!ped-up! | %185
!ped! [=E,,=E,]/[^F,,^F,]/[F,,F,]/[G,,G,]/ [G,,G,]/[F,,F,]/[F,,F,]/[E,,E,]/!ped-up! | %186
!ped! [^F,,^F,]/[F,,F,]/[F,,F,]/[F,,F,]/ [F,,F,]/[F,,F,]/[F,,F,]/[F,,F,]/!ped-up! | %187
!ped! [G,,G,]/[^F,,^F,]/[=E,,=E,]/[D,,D,]/ [^C,,^C,]/[B,,,B,,]/[C,,C,]/[D,,D,]/!ped-up! | %188
!ped! [=E,,=E,]/[E,,E,]/[E,,E,]/[E,,E,]/ [E,,E,]/[E,,E,]/[E,,E,]/[E,,E,]/!ped-up! | %189
!ped! [=E,,=E,]/[A,,,A,,]/[A,,,A,,]/[A,,A,]/ [A,,A,]/[E,,E,]/[E,,E,]/[^F,,^F,]/!ped-up! | %190
!ped! [D,,^F,,A,,D,]/[D,,F,,A,,D,]/[D,,F,,A,,D,]/[D,,F,,A,,D,]/ [D,,F,,A,,D,]/[D,,F,,A,,D,]/[D,,F,,A,,D,]!ped-up! | %191
!ped! .!^![=B,,,=B,,] .[^F,=B,D] .!^![_B,,,_B,,] .[=F,_B,]!ped-up! | %192
!ped! [D,,^F,,A,,D,]/[D,,F,,A,,D,]/[D,,F,,A,,D,]/[D,,F,,A,,D,]/ [D,,F,,A,,D,]/[D,,F,,A,,D,]/[D,,F,,A,,D,]!ped-up! | %193
!ped! .!^![=B,,,=B,,] .[^F,=B,D] .!^![_B,,,_B,,] .[=F,_B,]!ped-up! | %194
!ped! [D,,^F,,A,,D,]/[D,,F,,A,,D,]/[D,,F,,A,,D,]/[D,,F,,A,,D,]/ [D,,F,,A,,D,]/[D,,F,,A,,D,]/[D,,F,,A,,D,]!ped-up! | %195
 .!^![=B,,,=B,,] .[^F,D] .!^![_B,,,_B,,] .[=F,D] | %196
 .!^![=B,,,=B,,] .[^F,D] .!^![_B,,,_B,,] .[=F,D] | %197
 .!^![=B,,,=B,,] .[^F,D] .!^![_B,,,_B,,] .[=F,D] | %198
!ped! !^![B,,,B,,][F,B,D] !^![B,,,B,,][F,B,D]!ped-up! | %199
!ped! !^![B,,,B,,][A,EF] !^![B,,,B,,][A,EF]!ped-up! | %200
!ped! !^![B,,,B,,][A,EF] !^![B,,,B,,][A,EF]!ped-up! | %201
!ped! !^![B,,,B,,][F,B,DF] !^![B,,,B,,][F,B,DF]!ped-up! | %202
!ped! !^![B,,,B,,][F,B,DF] !^![B,,,B,,][F,B,DF]!ped-up! | %203
!ped! !^![B,,,B,,][F,A,EF] !^![B,,,B,,][F,A,EF]!ped-up! | %204
!ped! !^![B,,,B,,][F,A,EF] !^![B,,,B,,][F,A,EF]!ped-up! | %205
!ped! !^![B,,,B,,][F,B,DF] !^![B,,,B,,][F,B,DF]!ped-up! | %206
 [F,,F,]/[G,,G,]/[A,,A,]/[B,,B,]/ [C,C]/[B,,B,]/[A,,A,]/[B,,B,]/ | %207
 .[C,C] (!>![C,G,B,C]2 .[C,G,B,C]) | !^![C,F,A,C]/[D,D]/[D,D]/[E,E]/ [E,E]/[D,D]/[D,D]/[C,C]/ | %209
 .[D,D] (!>![D,^F,A,D]2 .[D,G,B,D]) | %210
 !^![E,E]/[D,D]/[C,C]/[B,,B,]/ [A,,A,]/[G,,G,]/[A,,A,]/[B,,B,]/ | %211
 .[C,C] (!>![C,G,B,C]2 .[C,G,B,C]) | %212
 !^![_G,_G]/[F,F]/[=E,=E]/[_E,_E]/[D,D]/[^C,^C]/[=C,=C]/[=B,,=B,]/ | %213
[_B,,B,]/[A,,A,]/[_A,,_A,]/[G,,G,]/[_G,,_G,]/[F,,F,]/[=E,,=E,]/[_E,,_E,]/ | %214
 [D,,D,]/[^C,,^C,]/[=C,,=C,]/[=B,,,=B,,]/ [_B,,,_B,,]/[A,,,A,,]/[_A,,,_A,,]/[G,,,G,,]/ | %215
 [_G,,,_G,,]/[F,,,F,,]/[=E,,,=E,,]/[F,,,F,,]/ [^F,,,^F,,]/[=G,,,=G,,]/[^G,,,^G,,]/[A,,,A,,]/ | %216
 [B,,,B,,][_G,,,_G,,][B,,,B,,][=G,,,=G,,] | [B,,,B,,][_G,,,_G,,][B,,,B,,][=G,,,=G,,] | %218
 [B,,,B,,][_G,,,_G,,][B,,,B,,][=G,,,=G,,] | [B,,,B,,][_G,,,_G,,][B,,,B,,][=G,,,=G,,] | %220
 [B,,,B,,] z!ped! [F,,A,,C,F,] z | [B,,D,F,B,] z [F,,,A,,,C,,F,,] z | %222
 [B,,,D,,F,,B,,] z z3/2!ped-up!!ped! [F,B,DF]/ |[F,B,DF] z z3/2!ped-up!!ped! [B,,,D,,F,,B,,]/ | %224
[B,,,D,,F,,B,,] z z2!ped-up! |] %225
V:3
 x4 | x4 | x4 | x4 | x4 | x [D,A,][D,A,][F,A,] | x4 | x [E,A,][C,A,][E,A,] | %8
 [B,,=G,][A,,E,] [F,,E,][B,,E,] | x .[=G,B,]/.[A,C]/.[B,D]/.[CE]/.[DF]/.[B,D]/ | x4 | x4 | x4 | %13
 x A,A,D, | x4 | x G,G,_C, | [B,,F,][A,,E,] !arpeggio!=G,,B,, | %17
 x .[=G,B,]/.[A,C]/ .[B,D]/.[CE]/.[DF]/.[B,D]/ | x4 | x4 | x4 | x2 D,TE,{D,E,} | x4 | x4 | x4 | %25
 x A,, z A,, | x4 | x4 | x4 | x2 D,TE,{D,E,} | x4 | x4 | x4 | x A,, z A,, | x4 |[K:treble] x4 | %36
 x4 | x4 | x4 | x10 |[K:bass] x13 |:[K:C#][M:2/4] x4 | x4 | x4 | x4 | x4 | x4 | x4 | x4 | x4 | x4 | %51
 x4 | x4 | x4 | x4 | x4 | x4 | x4 | x4 | x4 | x4 | x4 | x4 | x4 | x4 |[K:treble] x4 | x4 | %67
[K:bass] x4 | x4 |[K:treble] x4 | x4 | x4 |[K:bass] x[K:treble] x3 :|[K:Db][M:4/4][K:bass] x8 | %74
 x5[K:treble] x3 |[K:bass] x[K:treble] x7 |[K:bass] x2[K:treble] x2[K:bass] x2[K:treble] x2 | %77
[K:bass] x[K:treble] x7 |[K:bass] x4 =G,,_G,, F,,2 | x5[K:treble] x3 |[K:bass] x[K:treble] x7 | %81
[K:bass] x8 | x[K:treble] x7 | %83
[K:bass] x43/64[K:treble] x4/3 [=B,=D]<!ff![CE][K:bass] x2/3[K:treble] x4/3 [=B,=D]<!ff![CE] | %84
[K:bass] x[K:treble] x7 | x6 =G,_G, |[K:bass] x8 | x8 | x2[K:treble] x23/4[K:bass] x/4 | x8 | x8 | %91
 x[K:treble] x3[K:bass] x[K:treble] x3 |[K:bass] x22 | x20 | x16 ||[K:Bb][M:2/4] x4 | x4 | x4 | %98
 x4 | x4 | x4 | x4 | x4 | x4 | x4 | x4 | x4 | x !tenuto!E2 .E | x4 | x !tenuto!D2 .D | x4 | %111
 x !tenuto!E2 .E | x4 | x !tenuto!D2 .D | x4 | x !>!!tenuto!=E2 .E | x4 | x !>!^F2 .[DF] | x4 | %119
 x !>!=E2 .E | x4 | D,4 | !>![=B,,^F,]2 [_B,,=F,]2 | D,4 | !>![=B,,^F,]2 [_B,,=F,]2 | D,4 | %126
 !>![=B,,^F,]2 [_B,,=F,]2 | D,4 | !>![=B,,^F,]2 [_B,,=F,]2 | x4 | x4 | x4 | x4 | x4 | x4 | x4 | %136
 x4 | x4 | x E2 .E | x4 | x D2 .D | x4 | x !>!E2 .E | x4 | x !>!D2 .D | x4 | x4 | x4 | x4 | x4 | %150
 x4 | x4 | x4 | [=B,,^F,]2 [_B,,=F,]2 | x4 | [=B,,^F,]2 [_B,,=F,]2 | x4 | [=B,,^F,]2 [_B,,=F,]2 | %158
 [=B,,^F,]2 [_B,,=F,]2 | [=B,,^F,]2 [_B,,=F,]2 | [=B,,^F,]2 [_B,,=F,]2 | x4 | x4 | x4 | %164
 x[K:treble] x3 | x4 | x4 |[K:bass] x4 | x4 | x4 | x4 | x4 | x4 | x4 | x4 | x4 | x F2 .F | x4 | %178
 x F2 .F | x4 | x F2 .F | x4 | x4 | x4 | x4 | x4 | x4 | x4 | x4 | x4 | x4 | x4 | x4 | x4 | x4 | %195
 x4 | x4 | x4 | x4 | x4 | x4 | x4 | x4 | x4 | x4 | x4 | x4 | x4 | x4 | x4 | x4 | x4 | x4 | x4 | %214
 x4 | x4 | x4 | x4 | x4 | x4 | x4 | x4 | x4 | x4 | x4 |] %225
V:4
 x4 | x4 | x4 | x4 | x4 | x4 | x4 | x4 | x4 | x4 | x4 | x D C2 | %12
 x2[I:staff +1] .!stemless![F,A,] x | .!stemless![F,A,] x3 | x4 | x4 | x4 | x4 | x4 | %19
 x[I:staff -1] D C2 | x4 | x4 | x4 | x4 | x4 | x4 | x4 | x G x2 | x4 | x4 | x4 | x4 | x4 | x4 | %34
 x4 |!8va(! x4 | x4 | Tx/Tx/ x Tx/Tx/ x | Tx/Tx/ x Tx/Tx/ x | %39
 x113/64 (7:4:2c'/4d'/4 x4!8va)! x247/64 | x10!8va(! x2!8va)! x |:[K:C#][M:2/4][K:bass] x4 | x4 | %43
 x4 | x4 |[K:treble] x4 | x4 | x4 | x4 | x4 | x4 | x4 | x4 | x4 | x4 | x4 | x4 | x4 | x4 | x4 | %60
 x4 | x4 | x4 | x4 | x4 |!8va(! x4 | x4 | x4 | x4!8va)! | x4 | x4 | x4 | x!8va(! x3!8va)! :| %73
[K:Db][M:4/4][K:bass] x8 | x8 | x8 | x8 | x6[K:treble] x2 | x437/60[K:bass] x43/60 | x8 | %80
 x6[K:treble] x2 | x8 | x8 | x8 | x8 | x121/24!8va(! x27/40!8va)! x55/24 | F2 x6 | %87
 z{/[DF]} [DF] z2 z{/[E_G]} [EG] z2 | z{/[=DF]} [DF] x6 | x8 | x7[K:bass] x | x8 | %92
 x6[K:treble] x8!8va(! x8 | x14!8va)! x6 | x16 ||[K:Bb][M:2/4] x4 | x4 | x4 | x4 | x F2 F | x4 | %101
 x [FB]2 [FB] | x4 | x F2 F | x4 | x F2 F | x4 | x4 | x4 | x4 | x4 | x4 | x4 | x4 | x4 | x4 | x4 | %117
 x4 | x4 | x4 | x4 | x4 | x4 | x4 | x4 | x4 | x4 | x4 | x4 | x4 | x !>!c'2 c' | x4 | x !>!d'2 d' | %133
 x4 | x !>!c'2 c' | x4 | x !>!b2 b | x4 | x !>!c'2 c' | x4 | x !>!d'2 d' | x4 | x4 | x4 | x4 | x4 | %146
 x4 | x4 | x4 | x4 | x4 | x4 | x4 | x4 | x4 |!8va(! x4 | x4 | x4 | x4 | x4 | x4!8va)! | x4 | x4 | %163
 x4 | x4 | x4 | x4 | x4 | x4 | x4 | x4 | x4 | x4 | x4 | x4 |!8va(! x4 | x4 | x4 | x4 | x4 | x4 | %181
 x4 | x3!8va)! x | x4 | x4 | x4 | x4 | x4 | x4 | x4 | x3!8va(! x | x2!8va)! x2 | x3!8va(! x | %193
 x2!8va)! x2 | x3!8va(! x | x!8va)! x3 | x4 | x4 | x4 | x4 | x4 | x4 | x4 | x4 | x4 | x4 | x4 | %207
 x4 | x4 | x4 | x4 | x4 | x4 |!8va(! x4 | x4 | x4 | x4 | x4 | x4 | x4 | x3!8va)! x | x4 | x4 | %223
 x7/2[K:bass] x/ | x4 |] %225

